X: 2813
T: Bantry, The
R: hornpipe
M: 4/4
K: Gmajor
dc|BAGB cB (3cBA|dbge dedB|(3cde cA (3Bcd BG|FGAG FDEG|
B3G cB (3cBA|dbge dedB|cedc (3BAG GF|GB B2 G2:|cB|
A3B cBce|dffe dccB|cecA (3Bcd BG|FGAG FDEF|
GFGA BGFD|GAAG ABBA|dgfe (3ded (3cBA|GB3 G2:|Bc|
dgBg dgBg|(3gfg bgfd ef|g3e dedc|(3BAG GF GDB,D|
Ggge dBGB|c3d effe|dgfe (3ded (3cBA|GB3 G2:|

